X:1
T:Brudefærden i Hardanger
T:Brudefærden i Hardanger
T:Halvdan Kjerulf
T:A. Munch
C:Halvdan Kjerulf
Z:A. Munch
%%score [ 1 2 3 ( 4 5 ) ]
L:1/8
Q:3/8=50
M:3/8
K:A
V:1 treble-8 nm="T1"
V:2 treble-8 nm="T2"
V:3 bass nm="B1"
V:4 bass nm="B2"
V:5 bass 
V:1
!mf!"^Andante" c | e !>!e3/2 d/ | (d/c/) c A | (B3/2 A/) B | c2 A |!<(! A B c!<)! | d e f | %7
w: 1.Der|aan- der en|tin- * dren- de|som- * mer|luft varmt|o- ver Har-|dan- ger- fjords|
w: 4.Saa|dra- ge de|frem- * ad med|ly- ste ligt|Spil hen-|o- ver den|blin- ken- de|
!>(! (e2 a)!>)! | e2!mf! c | e !>!e3/2 d/ | (d/c/) c A | (B3/2 A/) B | c2 B |!<(! A c ^d!<)! | %14
w: Van- *|de, hvor|højt op mod|Him- * len i|blaa- * lig|Duft de|mæg- ti- ge|
w: Fla- *|de, og|Baad ef- ter|Baad * * sig|slut- ter der-|til med|Bryl- * lups-|
 e2 (g/ f/) | ^d3 |!>(! e2-!>)! !fermata!e/!f! e/ | e e a | g2 f | f3/2 g/ f | e2!mf! e | %21
w: Fjel- de *|stan-|de. * Det|skin- ner fra|Bræ, det|grøn- nes fra|Li, sit|
w: gjes- ter saa|gla-|de. * Det|blaa- ner fra|Kjøft, det|skin- ner fra|Bræ, det|
 d3/2 e/ d | (c c) c |!<(! c3/2 c/ f!<)! | !fermata!^e2!mf! c ||[M:6/8][Q:1/4=124]"^Allegro" G6- | %26
w: Hel- lig- dags-|skrud * staar|Eg- nen klædt|i; ti,|se!|
w: duf- ter fra|blom- stren- de|A- * bild-|træ. Ær-|vær-|
 G A B A G F | G3 !fermata!C2!f! e | B6- | B c d (cB) A | B3 !fermata!E3 | %31
w: * o- ver grøn- kla- re|Bøl- ge hjem|gli-|* der et Bru- * de-|flø- ge.|
w: * dig staar Kir- ken paa|Tan- gen og|sig-|* ner med Klok- * ke-|klan- gen.|
[Q:1/4=74]"^Andantino con moto" z/!f! (c/ a2) z/ (B/ g2) |!p! !>!d e d c/ B/ c/ d/ e | %33
w: Aa haa! Aa hej!|La la la la la la la la!|
w: ||
 z/!f! (c/ a2) z/ (e/ g2) |!p! d !>!f e!<(! c/ d/ e!<)!!p! e | B3/2 c/ d c B A | e3 e2!mf! e | %37
w: Aa haa! Aa hej!|La la la la la la! Ti,|se! o- ver grøn- kla- re|Bøl- ge hjem|
w: |* * * * * * Ær-|vær- dig staar Kir- ken paa|Tan- gen og|
!<(! (B/A/) (B/c/) d!<)!!>(! (c/d/c/B/) A!>)! | e3- e3- | e3 e2!f! (!>!a | %40
w: gli- * der * et Bru- * * * de-|føl- *|* ge. Aa-|
w: sig- * ner * med Klok- * * * ke-|klan- *|* gen. *|
"^stringendo e decresc." !>!g3 f3 | e3 e3 | e3"^rit." e3 | e3) e3 |1 e3- !fermata!e z :|2 %45
w: haa! *|||* Aa-|haa! *|
w: |||||
 e3!<(! (e3!<)! |!>(! e3-!>)! !fermata!e3) |] %47
w: haa! Aa-|haa! *|
w: ||
V:2
!mf! A | B !>!B3/2 A/ | A A E | (G3/2 F/) G | A2 A |!<(! A A A!<)! | A c d |!>(! c3!>)! | %8
w: 1.Der|aan- der en|tin- dren- de|som- * mer|luft varmt|o- ver Har-|dan- ger- fjords|Van-|
w: 4.Saa|dra- ge de|frem- ad med|ly- ste ligt|Spil hen-|o- ver den|blin- ken- de|Fla-|
 c2!mf! (A/G/) | F !>!F3/2 G/ | (G/A/) A A | (AG/ F/) G | A2 G |!<(! A A B!<)! | B- B A | F3 | %16
w: de, hvor *|højt op mod|Him- * len i|blaa- * * lig|Duft de|mæg- ti- ge|Fjel- * de|stan-|
w: de, og *|Baad ef- ter|Baad * * sig|slut- * ter der-|til med|Bryl- * lups-|gjes- ter saa|gla-|
!>(! G2-!>)! !fermata!G/!f! d/ | d d d | d2 d | d d d | c2!mf! c | B B B | (B B) B | %23
w: de. * Det|skin- ner fra|Bræ, det|grøn- nes fra|Li, sit|Hel- lig- dags-|skrud * staar|
w: de. * Det|blaa- ner fra|Kløft, det|skin- ner fra|Bræ, det|duf- ter fra|blom- stren- de|
!<(! A3/2 c/ ^B!<)! | !fermata!c2!mf! c ||[M:6/8] G6- | G A B A G F | G3 !fermata!C2!f! e | B6- | %29
w: Eg- nen klædt|i; ti,|se!|* o- ver grøn- kla- re|Bøl- ge hjem|gli-|
w: A- * bild-|træ. Ær-|vær-|* dig staar Kir- ken paa|Tan- gen og|sig-|
 B c d (cB) A | G3 !fermata!E3 | z/!f! (E/ c2) z/ (E/ B2) |!p! !>!B c B A/ G/ A/ B/ c | %33
w: * der et Bru- * de-|flø- ge.|Aa haa! Aa hej!|La la la la la la la la!|
w: * ner med Klok- * ke-|klan- gen.|||
 z/!f! (A/ c2) z/ (B/ e2) |!p! B !>!d c!<(! A/ B/ c!<)!!p! c | G3/2 A/ B A E C | E3 E2!mf! E | %37
w: Aa haa! Aa hej!|La la la la la la! Ti,|se! o- ver grøn- kla- re|Bøl- ge hjem|
w: |* * * * * * Ær-|vær- dig staar Kir- ken paa|Tan- gen og|
!<(! (G/F/) (G/A/) B!<)!!>(! (A/B/A/E/) C!>)! | E3- E3- | E3 E2!f! (!>!E | %40
w: gli- * der * et Bru- * * * de-|føl- *|* ge. Aa-|
w: sig- * ner * med Klok- * * * ke-|klan- *|* gen. *|
"^stringendo e decresc." !>!e3 e3 | e3 d3 | c3"^rit." B3 | A3) c3 |1 B3- !fermata!B z :|2 %45
w: haa! *|||* Aa-|haa! *|
w: |||||
 B3!<(! (B3!<)! |!>(! c3-!>)! !fermata!c3) |] %47
w: haa! Aa-|haa! *|
w: ||
V:3
!mf! E, | G, !>!G,3/2 F,/ | (F,/E,/) E, E, | (E,3/2 E,/) E, | E,2 A, |!<(! A, A, A,!<)! | %6
w: 1.Der|aan- der en|tin- * dren- de|som- * mer|luft varmt|o- ver Har-|
w: 4.Saa|dra- ge de|frem- * ad med|ly- ste ligt|Spil hen-|o- ver den|
 A, A, A, |!>(! (A,2 E,)!>)! | A,2!mf! E, | D, !>!D,3/2 E,/ | E, E, E, | (E,3/2 E,/) E, | E,2 E, | %13
w: dan- ger- fjords|Van- *|de, hvor|højt op mod|Him- len i|blaa- * lig|Duft de|
w: blin- ken- de|Fla- *|de, og|Baad ef- ter|Baad * sig|slut- ter der-|til med|
!<(! A, A, A,!<)! | G,- G, C | B,3 |!>(! B,2-!>)! !fermata!B,/!f! B,/ | B, B, B, | B,2 B, | %19
w: mæg- ti- ge|Fjel- * de|stan-|de. * Det|skin- ner fra|Bræ, det|
w: Bryl- * lups-|gjes- ter saa|gla-|de. * Det|blaa- ner fra|Kløft, det|
 B, B, B, | (CB,)!mf! A, | A, G, F, | (^E, F,) G, |!<(! A,3/2 G,/ G,!<)! | !fermata!G,2!mf! C || %25
w: grøn- nes fra|Li, * sit|Hel- lig- dags-|skrud * staar|Eg- nen klædt|i; ti,|
w: skin- ner fra|Bræ, * det|duf- ter fra|blom- stren- de|A- * bild-|træ. Ær-|
[M:6/8] G,6- | G, A, B, A, G, F, | G,3 !fermata!C,2!f! C | G,6- | G, A, B, (A,E,) C, | %30
w: se!|* o- ver grøn- kla- re|Bøl- ge hjem|gli-|* der et Bru- * de-|
w: vær-|* dig staar Kir- ken paa|Tan- gen og|sig-|* ner med Klok- * ke-|
 E,3 !fermata!E,3 |!p! E,2 E, E,2 E, | E,2 E, E,2 E, | E,2 E, E,2 E, | E,2 E,!<(! E,2!<)!!p! E, | %35
w: flø- ge.|Dum dum dum dum|dum dum dum dum|dum dum dum dum|dum dum dum dum|
w: klan- gen.|||||
 E,3 E,2 E, | B,3/2 C/ D C B, A, | E,3 E,2!mf! E, | %38
w: dum dum Ti,|se! o- ver grøn- kla- re|Bøl- ge hjem|
w: * * Ær-|vær- dig staar Kir- ken paa|Tan- gen og|
!<(! (B,/A,/) (B,/C/) D!<)!!>(! (C/D/C/B,/) A,!>)! | G,3 G,2!f! (!>!C | %40
w: gli- * der * et Bru- * * * de-|føl- ge. Aa-|
w: sig- * ner * med Klok- * * * ke-|klan- gen. *|
"^stringendo e decresc." !>!B,3 A,3 | G,3 F,3 | E,3"^rit." D,3 | C,3) A,3 |1 G,3- !fermata!G, z :|2 %45
w: haa! *|||* Aa-|haa! *|
w: |||||
 A,3!<(! (G,3!<)! |!>(! A,3-!>)! !fermata!A,3) |] %47
w: haa! Aa-|haa! *|
w: ||
V:4
!mf! A,, | A,, !>!A,,3/2 A,,/ | A,, A,, C, | (E,3/2 E,/) E, | A,,2 A, |!<(! A, G, =G,!<)! | %6
w: 1.Der|aan- der en|tin- dren- de|som- * mer|luft varmt|o- ver Har-|
w: 4.Saa|dra- ge de|frem- ad med|ly- ste ligt|Spil hen-|o- ver den|
 F, E, D, |!>(! A,,3!>)! | A,,2!mf! A,, | A,, !>!A,,3/2 A,,/ | A,, A,, C, | (E,3/2 E,/) E, | %12
w: dan- ger- fjords|Van-|de, hvor|højt op mod|Him- len i|blaa- * lig|
w: blin- ken- de|Fla-|de, og|Baad ef- ter|Baad * sig|slut- ter der-|
 A,,2 E, |!<(! F, F, F,!<)! | (G, G,,) A,, | B,,3 |!>(! E,2-!>)! !fermata!E,/!f! G,/ | G, G, F, | %18
w: Duft de|mæg- ti- ge|Fjel- * de|stan-|de. * Det|skin- ner fra|
w: til med|Bryl- * lups-|gjes- ter saa|gla-|de. * Det|blaa- ner fra|
 E,2 G,, | G,, G,, G,, | A,,2!mf! A,, | B,, B,, B,, | (C, ^D,) ^E, |!<(! F,3/2 =E,/ =D,!<)! | %24
w: Bræ, det|grøn- nes fra|Li, sit|Hel- lig- dags-|skrud * staar|Eg- nen klædt|
w: Kløft, det|skin- ner fra|Bræ, det|duf- ter fra|blom- stren- de|A- * bild-|
 !fermata!C,2!mf! C ||[M:6/8] G,6- | G, A, B, A, G, F, | G,3 !fermata!C,2!f! C | G,6- | %29
w: i; ti,|se!|* o- ver grøn- kla- re|Bøl- ge hjem|gli-|
w: træ. Ær-|vær-|* dig staar Kir- ken paa|Tan- gen og|sig-|
 G, A, B, (A,E,) C, | E,3 !fermata!E,3 |!p! A,,2 A,, A,,2 A,, | A,,2 A,, A,,2 A,, | %33
w: * der et Bru- * de-|flø- ge.|Dum dum dum dum|dum dum dum dum|
w: * ner med Klok- * ke-|klan- gen.|||
 A,,2 A,, A,,2 A,, | A,,2 A,,!<(! A,,2!<)!!p! A,, | E,3 E,2 E, | G,3/2 A,/ B, A, E, C, | %37
w: dum dum dum dum|dum dum dum dum|dum dum Ti,|se! o- ver grøn- kla- re|
w: ||* * Ær-|vær- dig staar Kir- ken paa|
 E,3 E,2!mf! E, |!<(! (G,/F,/) (G,/A,/) B,!<)!!>(! (A,/B,/A,/G,/) F,!>)! | E,3 E,2!f! (!>!E, | %40
w: Bøl- ge hjem|gli- * der * et Bru- * * * de-|føl- ge. Aa-|
w: Tan- gen og|sig- * ner * med Klok- * * * ke-|klan- gen. *|
"^stringendo e decresc." !>!E,3 E,3 | E,3 E,3 | E,3"^rit." E,3 | E,3) E,3 |1 E,3- !fermata!E, z :|2 %45
w: haa! *|||* Aa-|haa! *|
w: |||||
 E,3!<(! (E,3!<)! |!>(! A,,3-!>)! !fermata!A,,3) |] %47
w: haa! Aa-|haa! *|
w: ||
V:5
 x | x3 | x3 | x3 | x3 | x3 | x3 | x3 | x3 | x3 | x3 | x3 | x3 | x3 | x3 | x3 | x3 | x3 | x3 | x3 | %20
 x3 | x3 | x3 | x3 | x3 ||[M:6/8] x6 | x6 | x6 | x6 | x6 | x6 | x6 | x6 | x6 | x6 | x6 | x6 | x6 | %38
 x6 | x6 | x6 | x6 | x6 | x6 |1 E,,3- E,,2 :|2 x6 | x6 |] %47

